X:298
T:Misty Morning
C:by Doyle Lawson (Em)
N:transcribed by S.M. Block 9/2014
R:bluegrass
L:1/8
Q:1/4=216
M:4/4
K:G
z2 [eB][eB] [e2B2] [e2d2] | "Em"[eG][eG] [eeG][eeG] [e2e2G2] eg | ed BG [BE]z [B2E2] | 
"Am"[AC]A [AC]c AG ED | "Em"[EB,]z [BEB,][BEB,] [BEB,]z [B2E2B,2] | [d=F][eG] [eG][eG] [e2G2] eg | 
ed BG [B2E2] GA | "B7"[BF][BF] [BF][BF] Be dA | [BF]z [BEB,][BEB,] [BEB,]z [B2E2B,2] | 
"Em"[eG][eG] [eeG][eeG] [e2e2G2] eg | ed BG [BE]z [B2E2] | "Am"[AC]A [AC]c AG ED | 
K:E
"Em"[E2B,2] [BEB,][BEB,] [BEB,]z [B2E2B,2] | "E"[eG][eG] [eG][eG] B2 [BG][BG] | 
"B7"cB GF Ez =GF | "E"E2 [EB,][EB,] E=D B,D | E2 [EB,][EB,] [E4B,4] | "E"GB eG Be Gc | 
BG EA "D"[=D2A,2] z2 | "E"EB, EF GE FE | Ge BG B2 [e2B2G2] | "E"GB eG Be Gc | 
BG EA "D"A,=D AD | "E"EB, EF "B7"=G=D F2 | "E"E2 [EG,][EG,] [EG,]z [E2G,2] | GB eG Be Gc | 
BG EA "D"[=D2A,2] z2 | "E"EB, EF GE FE | Ge BG B2 [e2B2G2] | "E"GB eG Be Gc | 
BG EF "D"A,=D AD | "E"EB, EF "B7"=G=D F2 | [e8B8E8G,8] | 


